mobile/apps/auth/assets/custom-icons/icons/aruba.svg

<?xml version="1.0" encoding="utf-8"?><!-- Uploaded to: SVG Repo, www.svgrepo.com, Generator: SVG Repo Mixer Tools -->
<svg width="800px" height="800px" viewBox="0 0 24 24" xmlns="http://www.w3.org/2000/svg">
  <path fill="#FF8300" fill-rule="evenodd" d="M12.1099561,17.3015551 C9.03598293,17.3015551 6.50849391,14.8423766 6.50849391,11.836714 C6.50849391,8.83105139 9.03598293,6.37187289 12.1099561,6.37187289 C15.1839292,6.37187289 17.7114182,8.83105139 17.7114182,11.836714 C17.7114182,14.8423766 15.1839292,17.3015551 12.1099561,17.3015551 L12.1099561,17.3015551 Z M12.1099561,2 C6.50849391,2 2,6.4401834 2,11.836714 C2,17.3015551 6.50849391,21.673428 12.1099561,21.673428 C14.4325135,21.673428 16.5501395,20.9220123 18.2579023,19.6241126 C19.28256,21.3318754 22.2199121,21.673428 22.2199121,21.673428 L22.2199121,11.836714 C22.2199121,6.4401834 17.7114182,2 12.1099561,2 L12.1099561,2 Z"/>
</svg>

<svg xmlns="http://www.w3.org/2000/svg" viewBox="0 0 24 24"><path fill="#FF8300" fill-rule="evenodd" d="M12.11 17.302c-3.074 0-5.602-2.46-5.602-5.465 0-3.006 2.528-5.465 5.602-5.465 3.074 0 5.601 2.46 5.601 5.465s-2.527 5.465-5.601 5.465ZM12.11 2C6.508 2 2 6.44 2 11.837c0 5.465 4.508 9.836 10.11 9.836 2.323 0 4.44-.751 6.148-2.049 1.025 1.708 3.962 2.05 3.962 2.05v-9.837C22.22 6.44 17.71 2 12.11 2Z"/></svg>
